X: 1
T: Capt. Charles Stewart's Jig
C: Malcolm MacDonald
R: jig
B: RSCDS 35-1
Z: 1997 by John Chambers <jc:trillian.mit.edu>
M: 6/8
L: 1/8
K: G
D \
| "G"Gz2 "C"G2c | "G"B{c}de "C"g2e | "G"dBG "Am"ABA | "C"GEE "D7"E2D \
| "G"Gz2 "C"G2c | "G"B{c}de "C"g2e | "G"dBG "Am"ABc | "D7"BGG "G"G2 :|
d \
| "G"d^cd "C"e=ce | efg g2e | "G"dBG "Am"ABc | "G"BAG "C"EDE \
| "G"d^cd "C"e=ce | efg g2e | "G"dBG "Am"ABc | "D7"BGG "G"G2 |]
d \
| "G"d^cd "C"e=ce | efg g2e | "G"dBG "Am"ABc | "G"BAG "C"EDE \
| "G"Gz2 "C"G2c | "G"B{c}de "C"g2e | "G"dBG "Am"ABc | "D7"BGG "G"G2 |]
%%center Book35/CaptCharlesStewartsJ-JC.abc

%%sep 1 1 500
%%sep 1 1 500

